src/images/home/external_link.svg

<svg fill="none" height="12" viewBox="0 0 12 12" width="12" xmlns="http://www.w3.org/2000/svg"><path clip-rule="evenodd" d="m9.84623 1.30028h-8.69239v-1.000001h9.89946l.5.000001v.499999 9.899521h-1v-8.69242l-9.75301 9.75302-.7071067-.7071z" fill="#fff" fill-rule="evenodd"/></svg>

<svg width="12" height="12" viewBox="0 0 12 12" fill="none" xmlns="http://www.w3.org/2000/svg">
<path fill-rule="evenodd" clip-rule="evenodd" d="M9.84623 1.30028H1.15384L1.15384 0.300279L11.0533 0.300279L11.5533 0.30028L11.5533 0.800279L11.5533 10.6998L10.5533 10.6998L10.5533 2.00738L0.80029 11.7604L0.0931833 11.0533L9.84623 1.30028Z" fill="white"/>
</svg>
